X:1
T:Title
%%score { ( 1 3 ) | ( 2 4 ) }
L:1/8
M:6/8
K:Eb
V:1 treble nm="Grand Piano"
V:3 treble 
V:2 bass 
V:4 bass 
V:1
 z3 z2[Q:1/4=90] E | EFG [Ac][GB]G | B2 =A _A2 A | AGA dcA |[M:5/8] [Ac][Ac][Ac] [GB]2 |[M:1/8] E | %6
[M:3/4] EF G[Ac] [GB]G | F2 F c2 c | ed cB GA | GG [DF] E3 |[M:1/8] B |[M:3/4] e3 .d3 | G3 .c3 | %13
 [B,GB]3 [_DGB]3 | [DAB]4- [DAB][DAB] | d3 .F3 | A3 .d3 | [GB]3 E3 | G4- GB | e3 .d3 | G3 .c3 | %21
 F3 A3 | c4- cc | e3 d2 c | B3 c2 G | [DG]3 [DF]3 |[M:5/8] [B,E]-[B,E]- [B,E]3 |] %27
V:2
 z3 z2 [E,G,] | [E,G,][E,A,E][E,B,E] [E,E][E,E][E,B,E] | [B,EG]2 [B,C_G] [B,DF]2 [B,DF] | %3
 [B,DF][B,_D=E][B,=DF] [B,DA][B,DA][B,DF] |[M:5/8][K:bass] [E,E][E,E][E,E] [E,E]2 |[M:1/8] [E,G,] | %6
[M:3/4] [E,G,][E,A,E] [E,B,E][E,E] [E,E][E,B,E] | [A,CE]2 [A,CE] [A,EA]2 [A,EA] | %8
 [=A,C_G][A,DG] [A,EG][B,E=G][K:bass] [B,E][F,CF] | [B,E][B,E] [B,,A,] [E,G,]3 |[M:1/8] B, | %11
[M:3/4][K:treble] z G .G2 G[CGB] | z B, .B,2 EG, | E,3 =E,3 | F,4- F,F, | %15
 z [F,B,D] .[F,B,D]2 [F,B,][F,B,D] | z [F,B,] .[F,B,]2 [F,B,D][F,B,D] | [E,B,]3 [E,G,B,]3 | %18
 [E,B,E]4- [E,B,E]B, | z G .G2 G[CGB] | z B, .B,2 E[G,B,E] | [F,A,C]3[K:treble] [F,CF]3 | %22
 [F,A,F]4- [F,A,F][A,CE] | [=A,C_G]3 [A,DG]2 [A,DG] | [B,EG]3 [B,EG]2[K:bass] [B,E] | %25
 [B,,B,]3 [B,,A,]3 |[M:5/8] [E,G,]-[E,G,]- [E,G,]3 |] %27
V:3
 x6 | x6 | x6 | x6 |[M:5/8] x5 |[M:1/8] x |[M:3/4] x6 | x6 | x6 | x6 |[M:1/8] x | %11
[M:3/4] z B .B2 Bc | z E .E2 G[B,EG] | x6 | x6 | z A .A2 DG | z D .D2 A[Ac] | x6 | x6 | %19
 z B .B2 Bc | z E .E2 GG | x6 | x6 | x6 | x6 | x6 |[M:5/8] x5 |] %27
V:4
 x6 | x6 | x6 | x6 |[M:5/8][K:bass] x5 |[M:1/8] x |[M:3/4] x6 | x6 | x4[K:bass] x2 | x6 | %10
[M:1/8] x |[M:3/4][K:treble] E3 .D3 | G,3 .C3 | x6 | x6 | B,,3 B,,3 | B,,3 B,,3 | x6 | x6 | %19
 E3 .D3 | G,3 .C3 | x3[K:treble] x3 | x6 | x6 | x5[K:bass] x | x6 |[M:5/8] x5 |] %27

